shared/images/iconfont/57-kb-iconfont-leave-16.svg

<?xml version="1.0" encoding="UTF-8"?>
<svg width="16px" height="16px" viewBox="0 0 16 16" version="1.1" xmlns="http://www.w3.org/2000/svg" xmlns:xlink="http://www.w3.org/1999/xlink">
    <!-- Generator: sketchtool 57.1 (101010) - https://sketch.com -->
    <title>0CE72D3D-DE26-461C-ADE0-EE16A674C154</title>
    <desc>Created with sketchtool.</desc>
    <g id="Symbols" stroke="none" stroke-width="1" fill="none" fill-rule="evenodd">
        <g id="57-kb-iconfont-leave-16">
            <g>
                <rect id="icon-area" opacity="0" x="0" y="0" width="16" height="16"></rect>
                <path d="M10.2685237,4.13649515 C9.29260802,3.80043497 8.77388159,2.73688818 9.10989623,1.76095686 C9.44593688,0.785023937 10.5095016,0.266288762 11.4854345,0.602329415 C12.4613674,0.938370068 12.9801026,2.00193479 12.644062,2.97786771 C12.3080213,3.95380063 11.2444566,4.4725358 10.2685237,4.13649515 Z M14.7890989,7.81986581 L14.7890928,7.81988348 C14.8960398,8.32472953 14.5736047,8.82072161 14.0688039,8.92788191 L11.5781815,9.45557899 L10.5521301,7.35185181 C10.5479343,7.34300806 10.5379601,7.33378225 10.5331996,7.32506689 L8.61844859,9.82625497 L11.004539,11.5663077 L9.86715124,14.8695216 C9.69913092,15.357488 9.16734855,15.6168556 8.67938209,15.4488353 C8.19141564,15.280815 7.93204805,14.7490326 8.10006837,14.2610661 L8.7880469,12.2630314 L6.38630551,10.5114491 L4.85516905,12.1554623 L1.63047843,11.0451122 C1.14251197,10.8770919 0.883144381,10.3453096 1.05116471,9.8573431 C1.21918503,9.36937664 1.75096739,9.11000905 2.23893385,9.27802938 L4.31548594,9.9930436 L4.32039141,9.98765649 L4.30054231,9.9878981 L7.55060516,6.02201998 C7.09632011,5.96662065 6.65065862,5.93734312 6.32880022,5.92399726 L4.80436766,7.08582345 C4.53902558,7.2909779 4.18408607,7.33819014 3.87434177,7.20953075 C3.56459747,7.08087135 3.34756443,6.79607719 3.30566361,6.46330236 C3.26376279,6.13052752 3.40342196,5.80082103 3.67160382,5.59939297 L5.71321729,4.04364083 L6.03380396,4.04690303 C7.19716219,4.0561439 8.35442088,4.21606953 9.47668366,4.52268663 L10.0657113,4.7255051 C10.984752,5.04214225 11.7555346,5.68521895 12.2317268,6.53264795 L12.6181252,7.32488205 L13.6810964,7.09958863 C13.9235528,7.04804392 14.1765548,7.0949912 14.3843774,7.23009009 C14.5922001,7.36518898 14.7377967,7.57735798 14.7890989,7.81986581 Z" id="running" fill="#000000"></path>
            </g>
        </g>
    </g>
</svg>

<svg xmlns="http://www.w3.org/2000/svg" width="16" height="16" viewBox="0 0 16 16">
    <path fill="#000" fill-rule="evenodd" d="M10.269 4.136A1.869 1.869 0 1 1 11.486.602a1.869 1.869 0 0 1-1.217 3.534zm4.52 3.684a.935.935 0 0 1-.72 1.108l-2.49.528-1.027-2.104c-.004-.009-.014-.018-.019-.027L8.618 9.826l2.387 1.74-1.138 3.304A.934.934 0 0 1 8.1 14.26l.688-1.998-2.402-1.752-1.53 1.644-3.226-1.11a.934.934 0 1 1 .609-1.767l2.076.715.005-.005H4.3l3.25-3.966c-.454-.055-.9-.085-1.221-.098L4.804 7.086a.934.934 0 1 1-1.132-1.487l2.041-1.555.32.003c1.164.01 2.321.17 3.444.476l.589.203c.919.316 1.69.96 2.166 1.807l.386.792 1.063-.225a.934.934 0 0 1 1.108.72z"/>
</svg>
